build/images/lazyload-card-big.svg

<svg width="720" height="288" xmlns="http://www.w3.org/2000/svg"><g fill="none" fill-rule="evenodd"><path d="M0 0h720v288H0z"/><path d="M0 0h288v24H0V0zm0 98h72v12H0V98zm0-32h72v12H0V66zm0 64h72v12H0v-12zm0 32h72v12H0v-12zm0 32h72v12H0v-12zm0 32h72v12H0v-12zM560 98h160v12H560V98zm-216 0h160v12H344V98zm-216 0h160v12H128V98zm432 32h160v12H560v-12zm-216 0h160v12H344v-12zm-216 0h160v12H128v-12zm432 32h160v12H560v-12zm-216 0h160v12H344v-12zm-216 0h160v12H128v-12zm432 32h160v12H560v-12zm-216 0h160v12H344v-12zm-216 0h160v12H128v-12zm432 32h160v12H560v-12zm-216 0h160v12H344v-12zm-216 0h160v12H128v-12zM0 274h72v12H0v-12zm560 0h160v12H560v-12zm-216 0h160v12H344v-12zm-216 0h160v12H128v-12zM560 66h72v12h-72V66zm-216 0h72v12h-72V66zm-216 0h72v12h-72V66z" fill-opacity=".1" fill="#000"/></g></svg>

<?xml version="1.0" encoding="UTF-8"?>
<svg width="720px" height="288px" viewBox="0 0 720 288" version="1.1" xmlns="http://www.w3.org/2000/svg" xmlns:xlink="http://www.w3.org/1999/xlink">
    <!-- Generator: sketchtool 52.6 (67491) - http://www.bohemiancoding.com/sketch -->
    <title>59769678-BBA1-4D5F-8027-B2C9B6111A16</title>
    <desc>Created with sketchtool.</desc>
    <g id="Symbols" stroke="none" stroke-width="1" fill="none" fill-rule="evenodd">
        <g id="graphic/lazyload/big">
            <g id="Group">
                <g id="icon">
                    <rect id="Rectangle" x="0" y="0" width="720" height="288"></rect>
                    <path d="M0,0 L288,0 L288,24 L0,24 L0,0 Z M0,98 L72,98 L72,110 L0,110 L0,98 Z M0,66 L72,66 L72,78 L0,78 L0,66 Z M0,130 L72,130 L72,142 L0,142 L0,130 Z M0,162 L72,162 L72,174 L0,174 L0,162 Z M0,194 L72,194 L72,206 L0,206 L0,194 Z M0,226 L72,226 L72,238 L0,238 L0,226 Z M560,98 L720,98 L720,110 L560,110 L560,98 Z M344,98 L504,98 L504,110 L344,110 L344,98 Z M128,98 L288,98 L288,110 L128,110 L128,98 Z M560,130 L720,130 L720,142 L560,142 L560,130 Z M344,130 L504,130 L504,142 L344,142 L344,130 Z M128,130 L288,130 L288,142 L128,142 L128,130 Z M560,162 L720,162 L720,174 L560,174 L560,162 Z M344,162 L504,162 L504,174 L344,174 L344,162 Z M128,162 L288,162 L288,174 L128,174 L128,162 Z M560,194 L720,194 L720,206 L560,206 L560,194 Z M344,194 L504,194 L504,206 L344,206 L344,194 Z M128,194 L288,194 L288,206 L128,206 L128,194 Z M560,226 L720,226 L720,238 L560,238 L560,226 Z M344,226 L504,226 L504,238 L344,238 L344,226 Z M128,226 L288,226 L288,238 L128,238 L128,226 Z M0,274 L72,274 L72,286 L0,286 L0,274 Z M560,274 L720,274 L720,286 L560,286 L560,274 Z M344,274 L504,274 L504,286 L344,286 L344,274 Z M128,274 L288,274 L288,286 L128,286 L128,274 Z M560,66 L632,66 L632,78 L560,78 L560,66 Z M344,66 L416,66 L416,78 L344,78 L344,66 Z M128,66 L200,66 L200,78 L128,78 L128,66 Z" id="graphic/lazyload/big" fill-opacity="0.1" fill="#000000"></path>
                </g>
            </g>
        </g>
    </g>
</svg>
